src/img/icons/profile.svg

<svg width="32" height="32" viewBox="0 0 32 32" fill="none" xmlns="http://www.w3.org/2000/svg">
<path d="M6.97258 24.1734C8.37135 23.187 9.80242 22.418 11.2658 21.8664C12.7292 21.3147 14.3072 21.0389 16 21.0389C17.6928 21.0389 19.2733 21.3147 20.7416 21.8664C22.2101 22.418 23.6438 23.187 25.0425 24.1734C26.0621 23.0102 26.8346 21.7479 27.3603 20.3864C27.8856 19.0247 28.1483 17.5626 28.1483 16C28.1483 12.5936 26.9753 9.71719 24.6292 7.37084C22.2828 5.02474 19.4064 3.85168 16 3.85168C12.5936 3.85168 9.71719 5.02474 7.37084 7.37084C5.02474 9.71719 3.85168 12.5936 3.85168 16C3.85168 17.5626 4.11695 19.0247 4.64747 20.3864C5.178 21.7479 5.95303 23.0102 6.97258 24.1734ZM15.9948 16.9258C14.6631 16.9258 13.5419 16.4688 12.6312 15.5546C11.7207 14.6404 11.2654 13.5175 11.2654 12.1857C11.2654 10.8543 11.7225 9.73316 12.6367 8.82242C13.5506 7.91168 14.6734 7.45632 16.0052 7.45632C17.3369 7.45632 18.4581 7.9134 19.3688 8.82758C20.2793 9.74175 20.7346 10.8647 20.7346 12.1964C20.7346 13.5279 20.2775 14.649 19.3633 15.5597C18.4494 16.4705 17.3266 16.9258 15.9948 16.9258ZM16.0114 30C14.0698 30 12.2482 29.6344 10.5466 28.9032C8.84526 28.172 7.36114 27.1722 6.09426 25.9039C4.82714 24.6355 3.82798 23.1533 3.09679 21.4571C2.3656 19.7608 2 17.9412 2 15.9982C2 14.0554 2.3656 12.2363 3.09679 10.5411C3.82798 8.84612 4.82775 7.36446 6.0961 6.0961C7.36446 4.82775 8.84674 3.82798 10.5429 3.09679C12.2392 2.3656 14.0588 2 16.0018 2C17.9446 2 19.7637 2.3656 21.4589 3.09679C23.1539 3.82798 24.6355 4.82775 25.9039 6.0961C27.1722 7.36446 28.172 8.84649 28.9032 10.5422C29.6344 12.2377 30 14.0531 30 15.9886C30 17.9302 29.6344 19.7518 28.9032 21.4534C28.172 23.1547 27.1722 24.6389 25.9039 25.9057C24.6355 27.1729 23.1535 28.172 21.4578 28.9032C19.7623 29.6344 17.9469 30 16.0114 30ZM16 28.1483C17.3565 28.1483 18.6846 27.9319 19.9841 27.4992C21.2836 27.0661 22.4854 26.3971 23.5895 25.492C22.4854 24.6682 21.2937 24.0286 20.0143 23.5733C18.7349 23.1179 17.3968 22.8902 16 22.8902C14.6032 22.8902 13.2628 23.1156 11.9787 23.5663C10.6944 24.017 9.50818 24.6589 8.4201 25.492C9.51775 26.3971 10.7163 27.0661 12.0159 27.4992C13.3154 27.9319 14.6435 28.1483 16 28.1483ZM16.0015 15.0742C16.8331 15.0742 17.5213 14.8014 18.0661 14.2559C18.6109 13.7101 18.8833 13.0214 18.8833 12.1898C18.8833 11.3581 18.6104 10.6699 18.0646 10.1252C17.5191 9.58038 16.8304 9.308 15.9985 9.308C15.1669 9.308 14.4787 9.58075 13.9339 10.1263C13.3891 10.672 13.1167 11.3607 13.1167 12.1924C13.1167 13.024 13.3896 13.7122 13.9354 14.257C14.4809 14.8018 15.1696 15.0742 16.0015 15.0742Z" fill="#131212"/>
</svg>

<svg xmlns="http://www.w3.org/2000/svg" viewBox="0 0 32 32">
  <path fill="currentColor" d="M6.973 24.173c1.398-.986 2.83-1.755 4.293-2.307 1.463-.551 3.041-.827 4.734-.827s3.273.276 4.742.827c1.468.552 2.902 1.321 4.3 2.307a12.617 12.617 0 0 0 2.318-3.787c.526-1.361.788-2.823.788-4.386 0-3.406-1.173-6.283-3.519-8.63C22.283 5.026 19.406 3.853 16 3.853c-3.406 0-6.283 1.173-8.63 3.519C5.026 9.717 3.853 12.594 3.853 16c0 1.563.265 3.025.795 4.386a12.742 12.742 0 0 0 2.326 3.787Zm9.022-7.247c-1.332 0-2.453-.457-3.364-1.371-.91-.915-1.366-2.037-1.366-3.37 0-1.33.457-2.452 1.372-3.363.914-.91 2.036-1.366 3.368-1.366 1.332 0 2.453.457 3.364 1.372.91.914 1.366 2.037 1.366 3.368 0 1.332-.457 2.453-1.372 3.364-.914.91-2.036 1.366-3.368 1.366ZM16.01 30c-1.941 0-3.763-.366-5.464-1.097a14.087 14.087 0 0 1-4.453-3 14.152 14.152 0 0 1-2.997-4.446C2.366 19.761 2 17.941 2 15.998c0-1.943.366-3.762 1.097-5.457a14.142 14.142 0 0 1 3-4.445 14.137 14.137 0 0 1 4.446-3C12.239 2.367 14.059 2 16.002 2c1.943 0 3.762.366 5.457 1.097a14.142 14.142 0 0 1 4.445 3 14.14 14.14 0 0 1 3 4.445C29.633 12.238 30 14.053 30 15.99c0 1.941-.366 3.763-1.097 5.464a14.086 14.086 0 0 1-3 4.453 14.154 14.154 0 0 1-4.445 2.997C19.762 29.634 17.947 30 16.01 30ZM16 28.148c1.357 0 2.685-.216 3.984-.649a11.28 11.28 0 0 0 3.605-2.007 13.54 13.54 0 0 0-3.575-1.919A11.881 11.881 0 0 0 16 22.89c-1.397 0-2.737.226-4.021.676a12.78 12.78 0 0 0-3.559 1.926 11.166 11.166 0 0 0 3.596 2.007c1.3.433 2.627.65 3.984.65Zm.002-13.074c.831 0 1.52-.273 2.064-.818.545-.546.817-1.235.817-2.066 0-.832-.273-1.52-.818-2.065-.546-.545-1.235-.817-2.067-.817-.831 0-1.52.273-2.064.818-.545.546-.817 1.235-.817 2.066 0 .832.273 1.52.818 2.065.546.545 1.235.817 2.066.817Z"/>
</svg>
